X:3419
T:La Mouraillade
O:england
M:3/8
L:1/8
K:C
e2e|fed|dc2|e2e|fed|g3:|\
|:cde|d2c/B/|AG2|cde|fed|1 g3:|2 c3||


